X:1875
T:Fanny Power (Turlough O'Carolan)
O:england
M:3/4
L:1/4
K:G
D |G2 D|G>A B|c2 B|A2 G|F>E D|\
DE D|F2 G|A2 c|B>A G|B cd|
e2 A|A2 G|F>E D|DG F|(G3|G3) ||\
d|d B/c/ d|d B/c/ d|G2 G|GB G| e c/d/ e|
e c/d/ e|Ac A|Ac A| B>c d|ef g|\
fg a|d ec|B>A G|{A}c2 F|(G3 |G3) ||


